assets/icons/standard/expense_report_entry.svg

<svg xmlns="http://www.w3.org/2000/svg" width="100" height="100" viewBox="0 0 100 100"><path d="M37,31.6H57.4a1.84,1.84,0,0,0,1.9-1.9V25.9a5.66,5.66,0,0,0-5.5-5.7h-13a5.59,5.59,0,0,0-5.5,5.7v3.8A1.74,1.74,0,0,0,37,31.6Z" fill="#fff"/><path d="M67.3,54.5A12.7,12.7,0,1,0,80,67.2,12.72,12.72,0,0,0,67.3,54.5Zm8.2,9.2L66.2,73a1.94,1.94,0,0,1-2.6,0L59,68.4a.85.85,0,0,1,0-1.3l1.3-1.3a.85.85,0,0,1,1.3,0L64.8,69l8.1-8.1a.85.85,0,0,1,1.3,0l1.3,1.3C76.2,62.8,75.7,63.4,75.5,63.7Z" fill="#fff"/><path d="M59.8,52.3h0a3.91,3.91,0,0,1-2.7-3.8H37.3a4,4,0,0,1-4,4V61a4,4,0,0,1,4,4H50.9A16.74,16.74,0,0,1,59.8,52.3ZM47.2,61.9a5.4,5.4,0,1,1,5.4-5.4A5.38,5.38,0,0,1,47.2,61.9Z" fill="#fff"/><path d="M67.6,25H65.7a.84.84,0,0,0-.9.9v3.8a7.56,7.56,0,0,1-7.4,7.6H37a7.49,7.49,0,0,1-7.4-7.6V25.9a.84.84,0,0,0-.9-.9H26.8a5.59,5.59,0,0,0-5.5,5.7V71.3A5.66,5.66,0,0,0,26.8,77H54a17,17,0,0,1-3.1-7.7H32.6a3.37,3.37,0,0,1-3.4-3.4V47.8a3.37,3.37,0,0,1,3.4-3.4H62a3.37,3.37,0,0,1,3.4,3.4v2.9h0a13.4,13.4,0,0,1,2-.1,15.75,15.75,0,0,1,5.8,1.1v-21A5.74,5.74,0,0,0,67.6,25Z" fill="#fff"/></svg>

<?xml version="1.0"?><svg xmlns="http://www.w3.org/2000/svg" width="100" height="100" viewBox="0 0 100 100"><title></title><path d="m37 31.6h20.4a1.8 1.8 0 0 0 1.9-1.9v-3.8a5.7 5.7 0 0 0-5.5-5.7h-13a5.6 5.6 0 0 0-5.5 5.7v3.8a1.7 1.7 0 0 0 1.7 1.9z m30.3 22.9a12.7 12.7 0 1 0 12.7 12.7 12.7 12.7 0 0 0-12.7-12.7z m8.2 9.2l-9.3 9.3a1.9 1.9 0 0 1-2.6 0l-4.6-4.6a0.8 0.8 0 0 1 0-1.3l1.3-1.3a0.8 0.8 0 0 1 1.3 0l3.2 3.2 8.1-8.1a0.8 0.8 0 0 1 1.3 0l1.3 1.3c0.7 0.6 0.2 1.2 0 1.5z m-15.7-11.4a3.9 3.9 0 0 1-2.7-3.8h-19.8a4 4 0 0 1-4 4v8.5a4 4 0 0 1 4 4h13.6a16.7 16.7 0 0 1 8.9-12.7z m-12.6 9.6a5.4 5.4 0 1 1 5.4-5.4 5.4 5.4 0 0 1-5.4 5.4z m20.4-36.9h-1.9a0.8 0.8 0 0 0-0.9 0.9v3.8a7.6 7.6 0 0 1-7.4 7.6h-20.4a7.5 7.5 0 0 1-7.4-7.6v-3.8a0.8 0.8 0 0 0-0.9-0.9h-1.9a5.6 5.6 0 0 0-5.5 5.7v40.6a5.7 5.7 0 0 0 5.5 5.7h27.2a17 17 0 0 1-3.1-7.7h-18.3a3.4 3.4 0 0 1-3.4-3.4v-18.1a3.4 3.4 0 0 1 3.4-3.4h29.4a3.4 3.4 0 0 1 3.4 3.4v2.9a13.4 13.4 0 0 1 2-0.1 15.8 15.8 0 0 1 5.8 1.1v-21a5.7 5.7 0 0 0-5.6-5.7z" fill="#fff"></path></svg>
